X: 24166
T: Lorcan's Trip From Dublin To Paris
R: waltz
M: 3/4
K: Adorian
B|:E3D G2|F3G A2|G3A B3|F3E FG|
E3D G2|F3G A2|G3D cB|1 (A4 A)G:|2 (A4 A)B||
|:c3d cB|A3D GA|B3A BG|E3D AB|
c3B A2|F3D EF|GD B2 c2|1 A4 AB:|2 A4 Bd||
|:e3c A2|d3c B2|E3D GA|BA Bc d2|
e3c A2|d3c B2|AD B2 c2|1 A3B cd|2 (A4 A)2:|
|:a3g e2|e3d ab|a3g ed|B3G E2|
e3c A2|d3c BG|AD dc (A2|1 A3)B cd|2 (A4 A)2:|

